images/linkedin-white.svg

<svg width="42" height="43" viewBox="0 0 42 43" fill="none" xmlns="http://www.w3.org/2000/svg">
<g clip-path="url(#clip0)">
<path d="M9.7944 13.4937H1.88672C1.20708 13.4937 0.65625 14.0579 0.65625 14.7534V41.7406C0.65625 42.4364 1.20708 43.0004 1.88672 43.0004H9.7944C10.474 43.0004 11.0249 42.4364 11.0249 41.7406V14.7534C11.0249 14.0579 10.474 13.4937 9.7944 13.4937Z" fill="white"/>
<path d="M5.84088 0C2.98196 0 0.65625 2.38109 0.65625 5.30742C0.65625 8.23441 2.98196 10.6152 5.84088 10.6152C8.69948 10.6152 11.0249 8.23408 11.0249 5.30742C11.0249 2.38109 8.69948 0 5.84088 0Z" fill="white"/>
<path d="M29.565 13.3151C27.6946 13.3151 25.8511 13.7766 24.2003 14.6401C24.1442 13.9974 23.6171 13.4932 22.9746 13.4932H15.0663C14.387 13.4932 13.8358 14.0575 13.8358 14.753V41.7402C13.8358 42.436 14.387 42.9999 15.0663 42.9999H22.9746C23.6542 42.9999 24.2051 42.436 24.2051 41.7402V26.8972C24.2051 24.9879 25.7223 23.4345 27.5876 23.4345C29.4522 23.4345 30.9694 24.9879 30.9694 26.8972V41.7402C30.9694 42.436 31.5206 42.9999 32.1999 42.9999H40.1079C40.7876 42.9999 41.3384 42.436 41.3384 41.7402V25.3688C41.3384 18.7222 36.057 13.3151 29.565 13.3151Z" fill="white"/>
</g>
<defs>
<clipPath id="clip0">
<rect width="42" height="43" fill="white"/>
</clipPath>
</defs>
</svg>

<svg width="42" height="43" fill="none" xmlns="http://www.w3.org/2000/svg"><g clip-path="url(#clip0)" fill="#fff"><path d="M9.794 13.494H1.887c-.68 0-1.23.564-1.23 1.26V41.74c0 .695.55 1.26 1.23 1.26h7.907c.68 0 1.23-.565 1.23-1.26V14.753c0-.695-.55-1.26-1.23-1.26zM5.84 0C2.983 0 .657 2.381.657 5.307c0 2.927 2.326 5.308 5.185 5.308 2.858 0 5.184-2.38 5.184-5.308C11.025 2.381 8.699 0 5.84 0zM29.565 13.315c-1.87 0-3.714.462-5.365 1.325a1.243 1.243 0 00-1.225-1.147h-7.909c-.679 0-1.23.564-1.23 1.26V41.74c0 .696.551 1.26 1.23 1.26h7.909c.68 0 1.23-.564 1.23-1.26V26.897c0-1.91 1.517-3.462 3.383-3.462 1.864 0 3.381 1.553 3.381 3.462V41.74c0 .696.552 1.26 1.23 1.26h7.909c.68 0 1.23-.564 1.23-1.26V25.37c0-6.647-5.281-12.054-11.773-12.054z"/></g><defs><clipPath id="clip0"><path fill="#fff" d="M0 0h42v43H0z"/></clipPath></defs></svg>
